X:1
T:Elofabiten
C:KOMPOSITR
R:LTTYP
Z:TRANSKRIPTION GJORD AV, DATUM
O:GEOGRAFISK HRKOMST
S:efter SPELMAN
S:knd genom SPELMAN/GRUPP
M:2/4
L:1/16
K:F
|: C2CF B3F | F2E2 EGC2 | C2B2 BGE2 | F2c2 cAF2 | 
   C2CF B3F | F2E2 EGF2 | C2B2 BGE2 | F2F2 F4 :|
